X: 10158
T: Dingle Regatta, The
R: slide
M: 12/8
K: Dmajor
|:dcd e2d BAB d2 B|A3 AGA B2 A G2 B|
dcd e2d BAB d2B|A3 B2 A G3 G2:|
|:d3- def g3 gfg|a3 aga b2 a gfe|
d3- def g3 gfg|a2 g f2 e def g3:|
|:gbg dgd BdB G3|FGA DEF G2 B d3|
g3 d3 BdB G3|FGA D2 F G3 G3:|

